svg/blobs-icons/no-decorations/battery.svg

<svg xmlns="http://www.w3.org/2000/svg" xmlns:xlink="http://www.w3.org/1999/xlink" preserveAspectRatio="xMidYMid" width="216" height="103" viewBox="0 0 216 103"><defs><style>.cls-3{fill:#142a3b}.cls-4{fill:#ff3a2f}.cls-5{fill:#000;opacity:.35}</style></defs><g id="group-54svg"><path d="M201.712 28.112s-13.834.0-13.834.0.0 46.854.0 46.854 13.834.0 13.834.0C209.36 74.966 215.548 72.87 215.548 70.282V32.797c0-2.59-6.18799999999999-4.685-13.836-4.685z" id="path-1" class="cls-3" fill-rule="evenodd"/><path d="M196.805 74.966s0-46.854.0-46.854.0-8.493.0-8.493c0-10.818-8.803-19.62-19.621-19.62H19.629C8.812-.001.008 8.801.008 19.619V83.458c0 10.818 8.804 19.621 19.621 19.621H177.184c10.818.0 19.621-8.803 19.621-19.621V74.966z" id="path-2" class="cls-4" fill-rule="evenodd"/><path d="M180.689.353C182.685 3.424 183.872 7.07 183.872 10.998v8.493s0 46.854.0 46.854.0 8.492.0 8.492C183.872 85.654 175.069 94.458 164.252 94.458H6.697C5.497 94.458 4.334 94.311 3.192 94.104 6.694 99.492 12.74 103.079 19.63 103.079H177.184C188.002 103.079 196.805 94.275 196.805 83.458V74.966s0-46.853.0-46.853.0-8.493.0-8.493c0-9.618-6.971-17.604-16.116-19.267z" id="path-3" class="cls-5" fill-rule="evenodd"/><path d="M56.236 79.652C56.236 82.243 54.14 84.337 51.55 84.337H32.807C30.218 84.337 28.121 82.243 28.121 79.652V23.427c0-2.591 2.097-4.687 4.686-4.687H51.55c2.59.0 4.686 2.096 4.686 4.687V79.652z" id="path-4" class="cls-3" fill-rule="evenodd"/><path d="M93.72 79.652C93.72 82.243 91.625 84.337 89.035 84.337H70.292C67.703 84.337 65.607 82.243 65.607 79.652V23.427c0-2.591 2.096-4.687 4.685-4.687H89.035c2.59.0 4.685 2.096 4.685 4.687V79.652z" id="path-5" class="cls-3" fill-rule="evenodd"/></g></svg>

<svg xmlns="http://www.w3.org/2000/svg" xmlns:xlink="http://www.w3.org/1999/xlink" preserveAspectRatio="xMidYMid" width="216" height="103" viewBox="0 0 216 103">
  <defs>
    <style>

      .cls-3 {
        fill: #142a3b;
      }

      .cls-4 {
        fill: #ff3a2f;
      }

      .cls-5 {
        fill: #000000;
        opacity: 0.35;
      }
    </style>
  </defs>
  <g id="group-54svg">
    <path d="M201.712,28.112 C201.712,28.112 187.878,28.112 187.878,28.112 C187.878,28.112 187.878,74.966 187.878,74.966 C187.878,74.966 201.712,74.966 201.712,74.966 C209.360,74.966 215.548,72.870 215.548,70.282 C215.548,70.282 215.548,32.797 215.548,32.797 C215.548,30.207 209.360,28.112 201.712,28.112 Z" id="path-1" class="cls-3" fill-rule="evenodd"/>
    <path d="M196.805,74.966 C196.805,74.966 196.805,28.112 196.805,28.112 C196.805,28.112 196.805,19.619 196.805,19.619 C196.805,8.801 188.002,-0.001 177.184,-0.001 C177.184,-0.001 19.629,-0.001 19.629,-0.001 C8.812,-0.001 0.008,8.801 0.008,19.619 C0.008,19.619 0.008,83.458 0.008,83.458 C0.008,94.276 8.812,103.079 19.629,103.079 C19.629,103.079 177.184,103.079 177.184,103.079 C188.002,103.079 196.805,94.276 196.805,83.458 C196.805,83.458 196.805,74.966 196.805,74.966 Z" id="path-2" class="cls-4" fill-rule="evenodd"/>
    <path d="M180.689,0.353 C182.685,3.424 183.872,7.070 183.872,10.998 C183.872,10.998 183.872,19.491 183.872,19.491 C183.872,19.491 183.872,66.345 183.872,66.345 C183.872,66.345 183.872,74.837 183.872,74.837 C183.872,85.654 175.069,94.458 164.252,94.458 C164.252,94.458 6.697,94.458 6.697,94.458 C5.497,94.458 4.334,94.311 3.192,94.104 C6.694,99.492 12.740,103.079 19.630,103.079 C19.630,103.079 177.184,103.079 177.184,103.079 C188.002,103.079 196.805,94.275 196.805,83.458 C196.805,83.458 196.805,74.966 196.805,74.966 C196.805,74.966 196.805,28.113 196.805,28.113 C196.805,28.113 196.805,19.620 196.805,19.620 C196.805,10.002 189.834,2.016 180.689,0.353 Z" id="path-3" class="cls-5" fill-rule="evenodd"/>
    <path d="M56.236,79.652 C56.236,82.243 54.140,84.337 51.550,84.337 C51.550,84.337 32.807,84.337 32.807,84.337 C30.218,84.337 28.121,82.243 28.121,79.652 C28.121,79.652 28.121,23.427 28.121,23.427 C28.121,20.836 30.218,18.740 32.807,18.740 C32.807,18.740 51.550,18.740 51.550,18.740 C54.140,18.740 56.236,20.836 56.236,23.427 C56.236,23.427 56.236,79.652 56.236,79.652 Z" id="path-4" class="cls-3" fill-rule="evenodd"/>
    <path d="M93.720,79.652 C93.720,82.243 91.625,84.337 89.035,84.337 C89.035,84.337 70.292,84.337 70.292,84.337 C67.703,84.337 65.607,82.243 65.607,79.652 C65.607,79.652 65.607,23.427 65.607,23.427 C65.607,20.836 67.703,18.740 70.292,18.740 C70.292,18.740 89.035,18.740 89.035,18.740 C91.625,18.740 93.720,20.836 93.720,23.427 C93.720,23.427 93.720,79.652 93.720,79.652 Z" id="path-5" class="cls-3" fill-rule="evenodd"/>
  </g>
</svg>
